X: 41914
T: Waiting For Emilie
R: waltz
M: 3/4
K: Dmajor
AFG|:A2 BA FA|d3 c cc|c2 BA Bc|B2 A2 g2|
f3 g af|d2 de fd|g3 afg|e3 fge|
f2 g2 a2|d3 c cc|c2 BA Bc|B2 A2 g2|
f3 g af|d2 de fd|g2 e2 c2|1 d3 AFG:|2 d4 A2||
|:B2 d3 B|A2 G2 F2|E3 EDE|F2 D2 A,2|
B,2 B,C DE|FE DC DE|F2 A2 GF|1 ED EF GA:|2 DE F2 A2||
|:B2 d3 B|A2 G2 F2|E3 EDE|F2 D2 A,2|
B,2 B,C DE|(3EFE DC DE|F2 A2 GF|1 ED EF GA:|2 D3||

